X: 41903
T: Wade's
R: reel
M: 4/4
K: Gmajor
B3c BG (3GGG|dedB A2BA|GEEE DFGA|BGdB A2GA|
B3c BG (3GGG|dedB A2BA|GE (3EEE DFGB|1 AGGF G2 GA:|2 AGGF G2 AG||
F3F FGAF|G3 G GABd|e3 e dBGA|BAAG ABAG|
F3F FGAF|G3 G GABd|e3 e dBGB|1 A2G4 AG:|2 AGGF G4||

